image/achiments2.svg

<svg width="41" height="39" viewBox="0 0 41 39" fill="none" xmlns="http://www.w3.org/2000/svg">
<path d="M27.7412 4.87085H23.472V4.68C23.4655 4.10525 23.2295 3.55545 22.8136 3.1467C22.3978 2.73795 21.8348 2.50224 21.2435 2.48936H19.7835C19.4591 1.75115 18.9188 1.12174 18.2297 0.679207C17.5406 0.236678 16.733 0.000508121 15.907 0H15.7875C14.9615 0.000508121 14.1539 0.236678 13.4648 0.679207C12.7757 1.12174 12.2354 1.75115 11.9111 2.48936H10.4168C9.81516 2.49155 9.23878 2.7248 8.81333 3.13826C8.38788 3.55172 8.14787 4.11187 8.14562 4.6966V4.88745H3.91912C1.46006 4.88745 0 6.03255 0 7.94106V35.1913C0.00449371 36.2001 0.418842 37.1663 1.15285 37.8796C1.88685 38.593 2.88109 38.9956 3.91912 39H27.7412C28.7793 38.9956 29.7735 38.593 30.5075 37.8796C31.2415 37.1663 31.6559 36.2001 31.6604 35.1913V17.9483C31.6388 17.7485 31.537 17.5651 31.3772 17.4377C31.2174 17.3103 31.0123 17.2493 30.8065 17.2679C30.6278 17.2875 30.4611 17.3654 30.3339 17.489C30.2068 17.6127 30.1265 17.7746 30.1064 17.9483V35.1913C30.1052 35.492 30.0432 35.7896 29.9237 36.0671C29.8042 36.3445 29.6297 36.5964 29.4101 36.8083C29.1905 37.0202 28.9301 37.188 28.6437 37.302C28.3574 37.4161 28.0507 37.4743 27.7412 37.4732H3.91912C3.29559 37.4732 2.69747 37.233 2.25577 36.8053C1.81407 36.3776 1.56478 35.7972 1.56253 35.1913V7.92447C1.56253 7.54277 1.56253 6.39766 3.91912 6.39766H8.14562V7.46809C8.15005 7.66844 8.23449 7.85926 8.3811 8.00018C8.5277 8.14111 8.72496 8.22108 8.93116 8.22319H22.7292C22.9354 8.22108 23.1327 8.14111 23.2793 8.00018C23.4259 7.85926 23.5103 7.66844 23.5147 7.46809V6.39766H27.7839C28.4075 6.39766 29.0056 6.63781 29.4473 7.06551C29.889 7.49322 30.1383 8.07361 30.1405 8.67957V11.2519C30.1621 11.4517 30.2638 11.6351 30.4237 11.7625C30.5835 11.8899 30.7885 11.9509 30.9944 11.9323C31.1731 11.9128 31.3397 11.8348 31.4669 11.7112C31.5941 11.5876 31.6744 11.4256 31.6945 11.2519V8.67957C31.6934 8.17691 31.5901 7.67942 31.3906 7.21564C31.1912 6.75187 30.8994 6.33096 30.5321 5.97707C30.1647 5.62318 29.7291 5.34328 29.2502 5.15344C28.7712 4.96361 28.2584 4.86757 27.7412 4.87085ZM21.9437 6.70468H9.71669V4.68C9.71885 4.49942 9.79304 4.3267 9.92365 4.19823C10.0542 4.06976 10.2311 3.99556 10.4168 3.99128H12.4234C12.5955 3.99352 12.7635 3.94014 12.9011 3.83951C13.0386 3.73888 13.1379 3.59671 13.1833 3.43532C13.3365 2.88862 13.6701 2.40588 14.1328 2.06113C14.5955 1.71639 15.1618 1.52868 15.7448 1.52681H15.8985C16.4815 1.52868 17.0478 1.71639 17.5105 2.06113C17.9732 2.40588 18.3068 2.88862 18.46 3.43532C18.5054 3.59671 18.6047 3.73888 18.7422 3.83951C18.8797 3.94014 19.0478 3.99352 19.2199 3.99128H21.2264C21.4122 3.99556 21.589 4.06976 21.7196 4.19823C21.8502 4.3267 21.9244 4.49942 21.9266 4.68L21.9437 6.70468Z" fill="#E93B3C"/>
<path d="M30.8834 13.6748C30.675 13.6748 30.4752 13.7552 30.3279 13.8984C30.1806 14.0416 30.0978 14.2357 30.0978 14.4382C30.1049 14.6392 30.1868 14.8309 30.3284 14.9776C30.4769 15.1178 30.6763 15.1953 30.8834 15.1933C30.9832 15.1955 31.0824 15.1786 31.1755 15.1435C31.2686 15.1084 31.3536 15.0558 31.4258 14.9888C31.4979 14.9218 31.5558 14.8416 31.596 14.7528C31.6363 14.664 31.6581 14.5684 31.6604 14.4714C31.6624 14.2702 31.5826 14.0764 31.4384 13.932C31.2927 13.7823 31.0948 13.6906 30.8834 13.6748Z" fill="#E93B3C"/>
<path d="M39.345 24.5286C39.1366 24.5286 38.9368 24.609 38.7895 24.7522C38.6422 24.8953 38.5594 25.0895 38.5594 25.292C38.5665 25.493 38.6484 25.6846 38.79 25.8313C38.9393 25.9703 39.1382 26.0479 39.345 26.0479C39.5517 26.0479 39.7506 25.9703 39.9 25.8313C40.0415 25.6846 40.1234 25.493 40.1305 25.292C40.1305 25.0895 40.0477 24.8953 39.9004 24.7522C39.7531 24.609 39.5533 24.5286 39.345 24.5286Z" fill="#E93B3C"/>
<path d="M40.0622 14.1064L37.5519 8.66299C37.4631 8.48078 37.3037 8.34012 37.1085 8.27172C36.9134 8.20331 36.6983 8.21272 36.5102 8.29788C36.3349 8.37307 36.1948 8.50921 36.1175 8.67958L33.6157 14.1064C33.5679 14.2049 33.5445 14.3129 33.5474 14.4217V37.1828C33.5474 37.4221 33.5961 37.6591 33.6906 37.8801C33.7851 38.1011 33.9236 38.3018 34.0981 38.4707C34.2727 38.6396 34.4798 38.7732 34.7077 38.8641C34.9355 38.9549 35.1796 39.0011 35.4259 39H38.2777C38.7729 38.9978 39.2472 38.8057 39.5974 38.4653C39.9476 38.125 40.1453 37.6641 40.1476 37.1828V28.6194C40.1476 28.4169 40.0648 28.2227 39.9175 28.0796C39.7702 27.9364 39.5704 27.856 39.3621 27.856C39.1537 27.856 38.9539 27.9364 38.8066 28.0796C38.6593 28.2227 38.5765 28.4169 38.5765 28.6194V33.9383H35.1612V15.1934H38.5765V22.23C38.5765 22.4325 38.6593 22.6267 38.8066 22.7698C38.9539 22.913 39.1537 22.9934 39.3621 22.9934C39.5704 22.9934 39.7702 22.913 39.9175 22.7698C40.0648 22.6267 40.1476 22.4325 40.1476 22.23V14.4383C40.145 14.3229 40.1159 14.2094 40.0622 14.1064ZM36.8347 10.837L38.1325 13.6583H35.571L36.8347 10.837ZM38.5424 35.4485V37.1662C38.5424 37.2432 38.5109 37.3171 38.4548 37.3715C38.3988 37.426 38.3228 37.4566 38.2435 37.4566H35.4259C35.3464 37.4546 35.2707 37.4236 35.2137 37.3698C35.1568 37.316 35.1228 37.2433 35.1185 37.1662V35.5066L38.5424 35.4485Z" fill="#E93B3C"/>
<path d="M9.22151 10.9698C8.56966 10.9698 7.93245 11.1577 7.39045 11.5096C6.84846 11.8616 6.42602 12.3618 6.17657 12.9471C5.92712 13.5324 5.86185 14.1764 5.98902 14.7977C6.11619 15.419 6.43009 15.9897 6.89101 16.4377C7.35194 16.8856 7.9392 17.1907 8.57853 17.3143C9.21785 17.4378 9.88053 17.3744 10.4828 17.132C11.085 16.8896 11.5997 16.479 11.9619 15.9523C12.324 15.4256 12.5173 14.8063 12.5173 14.1728C12.5173 13.3233 12.1701 12.5087 11.552 11.908C10.9339 11.3073 10.0956 10.9698 9.22151 10.9698ZM9.22151 15.8407C8.88376 15.8407 8.5536 15.7434 8.27278 15.561C7.99195 15.3787 7.77307 15.1195 7.64382 14.8162C7.51457 14.513 7.48075 14.1793 7.54664 13.8574C7.61254 13.5354 7.77518 13.2397 8.014 13.0076C8.25282 12.7755 8.5571 12.6175 8.88836 12.5534C9.21962 12.4894 9.56297 12.5223 9.87501 12.6479C10.187 12.7735 10.4537 12.9862 10.6414 13.2591C10.829 13.532 10.9292 13.8529 10.9292 14.1811C10.9292 14.3991 10.885 14.6149 10.7992 14.8162C10.7134 15.0176 10.5876 15.2005 10.429 15.3546C10.2704 15.5087 10.0822 15.631 9.87501 15.7144C9.66782 15.7978 9.44577 15.8407 9.22151 15.8407Z" fill="#E93B3C"/>
<path d="M9.22151 20.1058C8.56966 20.1058 7.93245 20.2937 7.39045 20.6456C6.84846 20.9976 6.42602 21.4978 6.17657 22.0831C5.92712 22.6684 5.86185 23.3124 5.98902 23.9337C6.11619 24.555 6.43009 25.1257 6.89101 25.5737C7.35194 26.0216 7.9392 26.3267 8.57853 26.4503C9.21785 26.5738 9.88053 26.5104 10.4828 26.268C11.085 26.0256 11.5997 25.615 11.9619 25.0883C12.324 24.5616 12.5173 23.9423 12.5173 23.3088C12.5173 22.4593 12.1701 21.6446 11.552 21.044C10.9339 20.4433 10.0956 20.1058 9.22151 20.1058ZM9.22151 24.985C8.88376 24.985 8.5536 24.8877 8.27278 24.7053C7.99195 24.5229 7.77307 24.2638 7.64382 23.9605C7.51457 23.6573 7.48075 23.3236 7.54664 23.0016C7.61254 22.6797 7.77518 22.384 8.014 22.1519C8.25282 21.9198 8.5571 21.7618 8.88836 21.6977C9.21962 21.6337 9.56297 21.6666 9.87501 21.7922C10.187 21.9178 10.4537 22.1305 10.6414 22.4034C10.829 22.6763 10.9292 22.9972 10.9292 23.3254C10.9292 23.7656 10.7493 24.1877 10.429 24.4989C10.1088 24.8101 9.67441 24.985 9.22151 24.985Z" fill="#E93B3C"/>
<path d="M9.22151 29.2501C8.56966 29.2501 7.93245 29.438 7.39045 29.7899C6.84846 30.1419 6.42602 30.6421 6.17657 31.2274C5.92712 31.8126 5.86185 32.4567 5.98902 33.078C6.11619 33.6993 6.43009 34.27 6.89101 34.7179C7.35194 35.1659 7.9392 35.4709 8.57853 35.5945C9.21785 35.7181 9.88053 35.6547 10.4828 35.4123C11.085 35.1698 11.5997 34.7593 11.9619 34.2326C12.324 33.7059 12.5173 33.0866 12.5173 32.4531C12.5173 31.6036 12.1701 30.7889 11.552 30.1883C10.9339 29.5876 10.0956 29.2501 9.22151 29.2501ZM9.22151 34.121C8.88376 34.121 8.5536 34.0236 8.27278 33.8413C7.99195 33.6589 7.77307 33.3997 7.64382 33.0965C7.51457 32.7932 7.48075 32.4596 7.54664 32.1376C7.61254 31.8157 7.77518 31.52 8.014 31.2879C8.25282 31.0558 8.5571 30.8977 8.88836 30.8337C9.21962 30.7697 9.56297 30.8025 9.87501 30.9282C10.187 31.0538 10.4537 31.2665 10.6414 31.5394C10.829 31.8123 10.9292 32.1332 10.9292 32.4614C10.9292 32.9015 10.7493 33.3237 10.429 33.6349C10.1088 33.9461 9.67441 34.121 9.22151 34.121Z" fill="#E93B3C"/>
<path d="M24.9492 15.8407H15.9583C15.75 15.8407 15.5502 15.9211 15.4029 16.0643C15.2556 16.2075 15.1728 16.4016 15.1728 16.6041C15.1728 16.8066 15.2556 17.0007 15.4029 17.1439C15.5502 17.2871 15.75 17.3675 15.9583 17.3675H24.9492C25.1576 17.3675 25.3574 17.2871 25.5047 17.1439C25.652 17.0007 25.7348 16.8066 25.7348 16.6041C25.7348 16.4016 25.652 16.2075 25.5047 16.0643C25.3574 15.9211 25.1576 15.8407 24.9492 15.8407Z" fill="#E93B3C"/>
<path d="M24.9492 12.1896H15.9583C15.7527 12.2106 15.564 12.3095 15.4329 12.4648C15.3018 12.6201 15.2391 12.8194 15.2582 13.0194C15.2783 13.1931 15.3585 13.355 15.4857 13.4787C15.6129 13.6023 15.7796 13.6803 15.9583 13.6998H24.9492C25.0526 13.7116 25.1573 13.7033 25.2573 13.6755C25.3573 13.6476 25.4506 13.6007 25.5318 13.5375C25.613 13.4743 25.6805 13.396 25.7303 13.3073C25.7801 13.2185 25.8113 13.121 25.8221 13.0205C25.8328 12.9199 25.8229 12.8183 25.7929 12.7214C25.7629 12.6246 25.7134 12.5346 25.6473 12.4565C25.5812 12.3784 25.4998 12.3139 25.4078 12.2667C25.3158 12.2194 25.2151 12.1904 25.1115 12.1813C25.0573 12.1758 25.0025 12.1786 24.9492 12.1896Z" fill="#E93B3C"/>
<path d="M24.9492 24.9849H15.9583C15.75 24.9849 15.5502 25.0653 15.4029 25.2085C15.2556 25.3516 15.1728 25.5458 15.1728 25.7483C15.1728 25.9507 15.2556 26.1449 15.4029 26.2881C15.5502 26.4312 15.75 26.5117 15.9583 26.5117H24.9492C25.1576 26.5117 25.3574 26.4312 25.5047 26.2881C25.652 26.1449 25.7348 25.9507 25.7348 25.7483C25.7348 25.5458 25.652 25.3516 25.5047 25.2085C25.3574 25.0653 25.1576 24.9849 24.9492 24.9849Z" fill="#E93B3C"/>
<path d="M24.9492 21.3254H15.9583C15.75 21.3254 15.5502 21.4059 15.4029 21.549C15.2556 21.6922 15.1728 21.8864 15.1728 22.0888C15.1728 22.2913 15.2556 22.4855 15.4029 22.6286C15.5502 22.7718 15.75 22.8522 15.9583 22.8522H24.9492C25.1576 22.8522 25.3574 22.7718 25.5047 22.6286C25.652 22.4855 25.7348 22.2913 25.7348 22.0888C25.7348 21.8864 25.652 21.6922 25.5047 21.549C25.3574 21.4059 25.1576 21.3254 24.9492 21.3254Z" fill="#E93B3C"/>
<path d="M24.9492 34.121H15.9583C15.75 34.121 15.5502 34.2014 15.4029 34.3446C15.2556 34.4877 15.1728 34.6819 15.1728 34.8844C15.1728 35.0868 15.2556 35.281 15.4029 35.4242C15.5502 35.5674 15.75 35.6478 15.9583 35.6478H24.9492C25.1576 35.6478 25.3574 35.5674 25.5047 35.4242C25.652 35.281 25.7348 35.0868 25.7348 34.8844C25.7348 34.6819 25.652 34.4877 25.5047 34.3446C25.3574 34.2014 25.1576 34.121 24.9492 34.121Z" fill="#E93B3C"/>
<path d="M24.9492 30.4698H15.9583C15.7527 30.4908 15.564 30.5897 15.4329 30.745C15.3018 30.9003 15.2391 31.0996 15.2582 31.2996C15.2783 31.4733 15.3585 31.6353 15.4857 31.7589C15.6129 31.8825 15.7796 31.9605 15.9583 31.9801H24.9492C25.1549 31.9981 25.3597 31.9367 25.5191 31.8092C25.6786 31.6817 25.7799 31.4982 25.8013 31.2986C25.8226 31.099 25.7622 30.8992 25.6331 30.7425C25.504 30.5859 25.3166 30.4849 25.1115 30.4615L24.9492 30.4698Z" fill="#E93B3C"/>
</svg>

<?xml version="1.0" encoding="UTF-8" standalone="no"?>
<svg width="41" xmlns="http://www.w3.org/2000/svg" viewBox="0 0 41 39" height="39">
 <path d="m27.741 4.8708h-4.269v-0.1908c-0.006-0.5748-0.242-1.1246-0.658-1.5333s-0.979-0.6445-1.57-0.6573h-1.46c-0.325-0.7382-0.865-1.3677-1.554-1.8102-0.689-0.44252-1.497-0.67869-2.323-0.6792h-0.119c-0.826 0.00050812-1.634 0.23668-2.323 0.67921-0.689 0.44249-1.23 1.072-1.554 1.8102h-1.494c-0.6018 0.0022-1.1782 0.2354-1.6037 0.6489-0.4254 0.4134-0.6654 0.9736-0.6677 1.5583v0.1908h-4.2265c-2.459 0-3.9191 1.1452-3.9191 3.0537v27.25c0.0044937 1.009 0.41884 1.975 1.1528 2.689 0.734 0.713 1.7283 1.116 2.7663 1.12h23.822c1.038-0.004 2.033-0.407 2.767-1.12 0.734-0.714 1.148-1.68 1.152-2.689v-17.243c-0.021-0.2-0.123-0.383-0.283-0.51-0.16-0.128-0.365-0.189-0.571-0.17-0.178 0.02-0.345 0.097-0.472 0.221s-0.208 0.286-0.228 0.459v17.243c-0.001 0.301-0.063 0.599-0.182 0.876-0.12 0.277-0.294 0.529-0.514 0.741s-0.48 0.38-0.766 0.494c-0.287 0.114-0.593 0.172-0.903 0.171h-23.822c-0.6234 0-1.2215-0.24-1.6632-0.668-0.4417-0.427-0.691-1.008-0.6933-1.614v-27.266c0-0.3822 0-1.5273 2.3566-1.5273h4.2265v1.0704c0.0044 0.2003 0.0889 0.3912 0.2355 0.5321s0.3439 0.2209 0.5501 0.223h13.798c0.206-0.0021 0.404-0.0821 0.55-0.223 0.147-0.1409 0.231-0.3318 0.236-0.5321v-1.0704h4.269c0.624 0 1.222 0.2401 1.663 0.6678 0.442 0.4277 0.691 1.0081 0.693 1.6141v2.5724c0.022 0.2 0.124 0.383 0.284 0.51 0.16 0.128 0.364 0.189 0.57 0.17 0.179-0.019 0.346-0.097 0.473-0.221 0.127-0.123 0.207-0.285 0.227-0.459v-2.5724c-0.001-0.5027-0.104-1.0002-0.303-1.464-0.2-0.4637-0.492-0.8846-0.859-1.2385s-0.803-0.6338-1.282-0.8237c-0.479-0.1898-0.992-0.2858-1.509-0.2826zm-5.797 1.8339h-12.227v-2.0247c0.0018-0.1806 0.076-0.3533 0.2066-0.4818 0.1304-0.1284 0.3074-0.2026 0.4934-0.2069h2.006c0.173 0.0022 0.341-0.0512 0.478-0.1518 0.138-0.1006 0.237-0.2428 0.282-0.4042 0.153-0.5467 0.487-1.0294 0.95-1.3742 0.463-0.3447 1.029-0.5324 1.612-0.5343h0.153c0.584 0.0019 1.15 0.1896 1.612 0.5343 0.463 0.3448 0.797 0.8275 0.95 1.3742 0.045 0.1614 0.145 0.3036 0.282 0.4042 0.138 0.1006 0.306 0.154 0.478 0.1518h2.006c0.186 0.0043 0.363 0.0785 0.494 0.2069 0.13 0.1285 0.204 0.3012 0.207 0.4818l0.017 2.0247z" fill="#E93B3C"/>
 <path d="m30.883 13.675c-0.208 0-0.408 0.08-0.555 0.223-0.147 0.144-0.23 0.338-0.23 0.54 0.007 0.201 0.089 0.393 0.23 0.54 0.149 0.14 0.348 0.217 0.555 0.215 0.1 0.003 0.199-0.014 0.293-0.049 0.093-0.036 0.178-0.088 0.25-0.155s0.13-0.147 0.17-0.236 0.062-0.185 0.064-0.282c0.002-0.201-0.077-0.395-0.222-0.539-0.145-0.15-0.343-0.241-0.555-0.257z" fill="#E93B3C"/>
 <path d="m39.345 24.529c-0.208 0-0.408 0.08-0.555 0.223-0.148 0.143-0.231 0.338-0.231 0.54 0.007 0.201 0.089 0.393 0.231 0.539 0.149 0.139 0.348 0.217 0.555 0.217s0.406-0.078 0.555-0.217c0.142-0.146 0.223-0.338 0.23-0.539 0-0.202-0.082-0.397-0.23-0.54-0.147-0.143-0.347-0.223-0.555-0.223z" fill="#E93B3C"/>
 <path d="m40.062 14.106l-2.51-5.443c-0.089-0.1822-0.248-0.3229-0.444-0.3913-0.195-0.0684-0.41-0.059-0.598 0.0262-0.175 0.0752-0.315 0.2113-0.392 0.3817l-2.502 5.4264c-0.048 0.099-0.072 0.207-0.069 0.316v22.761c0 0.239 0.049 0.476 0.144 0.697 0.094 0.221 0.233 0.422 0.407 0.591 0.175 0.169 0.382 0.302 0.61 0.393s0.472 0.137 0.718 0.136h2.852c0.495-0.002 0.969-0.194 1.319-0.535 0.351-0.34 0.548-0.801 0.551-1.282v-8.564c0-0.202-0.083-0.396-0.23-0.539-0.148-0.144-0.348-0.224-0.556-0.224s-0.408 0.08-0.555 0.224c-0.148 0.143-0.231 0.337-0.231 0.539v5.319h-3.415v-18.745h3.415v7.037c0 0.202 0.083 0.397 0.231 0.54 0.147 0.143 0.347 0.223 0.555 0.223s0.408-0.08 0.556-0.223c0.147-0.143 0.23-0.338 0.23-0.54v-7.792c-0.003-0.115-0.032-0.229-0.086-0.332zm-3.227-3.269l1.297 2.821h-2.561l1.264-2.821zm1.707 24.611v1.718c0 0.077-0.031 0.151-0.087 0.206-0.056 0.054-0.132 0.085-0.211 0.085h-2.818c-0.08-0.002-0.155-0.033-0.212-0.087s-0.091-0.127-0.096-0.204v-1.659l3.424-0.059z" fill="#E93B3C"/>
 <path d="m9.2215 10.97c-0.6518 0-1.2891 0.188-1.8311 0.54-0.5419 0.352-0.9644 0.852-1.2138 1.437-0.2495 0.585-0.3148 1.229-0.1876 1.851 0.1272 0.621 0.4411 1.192 0.902 1.64s1.0482 0.753 1.6875 0.876c0.6393 0.124 1.302 0.06 1.9045-0.182 0.602-0.242 1.117-0.653 1.479-1.18 0.362-0.526 0.555-1.146 0.555-1.779 0-0.85-0.347-1.664-0.965-2.265s-1.456-0.938-2.3305-0.938zm0 4.871c-0.3377 0-0.6679-0.098-0.9487-0.28s-0.4997-0.441-0.629-0.745c-0.1292-0.303-0.163-0.637-0.0972-0.959 0.0659-0.322 0.2286-0.617 0.4674-0.849s0.5431-0.39 0.8744-0.455c0.3312-0.064 0.6746-0.031 0.9866 0.095s0.579 0.338 0.766 0.611c0.188 0.273 0.288 0.594 0.288 0.922 0 0.218-0.044 0.434-0.13 0.635-0.086 0.202-0.211 0.384-0.37 0.539-0.159 0.154-0.347 0.276-0.554 0.359-0.2072 0.084-0.4292 0.127-0.6535 0.127z" fill="#E93B3C"/>
 <path d="m9.2215 20.106c-0.6518 0-1.2891 0.188-1.8311 0.54-0.5419 0.352-0.9644 0.852-1.2138 1.437-0.2495 0.585-0.3148 1.229-0.1876 1.851 0.1272 0.621 0.4411 1.192 0.902 1.64s1.0482 0.753 1.6875 0.876c0.6393 0.124 1.302 0.06 1.9045-0.182 0.602-0.242 1.117-0.653 1.479-1.18 0.362-0.526 0.555-1.146 0.555-1.779 0-0.85-0.347-1.664-0.965-2.265s-1.456-0.938-2.3305-0.938zm0 4.879c-0.3377 0-0.6679-0.097-0.9487-0.28-0.2808-0.182-0.4997-0.441-0.629-0.745-0.1292-0.303-0.163-0.636-0.0972-0.958 0.0659-0.322 0.2286-0.618 0.4674-0.85s0.5431-0.39 0.8744-0.454c0.3312-0.064 0.6746-0.031 0.9866 0.094 0.312 0.126 0.579 0.338 0.766 0.611 0.188 0.273 0.288 0.594 0.288 0.922 0 0.441-0.18 0.863-0.5 1.174s-0.7546 0.486-1.2075 0.486z" fill="#E93B3C"/>
 <path d="m9.2215 29.25c-0.6518 0-1.2891 0.188-1.8311 0.54-0.5419 0.352-0.9644 0.852-1.2138 1.437-0.2495 0.586-0.3148 1.23-0.1876 1.851s0.4411 1.192 0.902 1.64 1.0482 0.753 1.6875 0.876c0.6393 0.124 1.302 0.061 1.9045-0.182 0.602-0.242 1.117-0.653 1.479-1.179 0.362-0.527 0.555-1.146 0.555-1.78 0-0.849-0.347-1.664-0.965-2.265-0.618-0.6-1.456-0.938-2.3305-0.938zm0 4.871c-0.3377 0-0.6679-0.097-0.9487-0.28-0.2808-0.182-0.4997-0.441-0.629-0.745-0.1292-0.303-0.163-0.636-0.0972-0.958 0.0659-0.322 0.2286-0.618 0.4674-0.85s0.5431-0.39 0.8744-0.454c0.3312-0.064 0.6746-0.032 0.9866 0.094s0.579 0.338 0.766 0.611c0.188 0.273 0.288 0.594 0.288 0.922 0 0.441-0.18 0.863-0.5 1.174s-0.7546 0.486-1.2075 0.486z" fill="#E93B3C"/>
 <path d="m24.949 15.841h-8.991c-0.208 0-0.408 0.08-0.555 0.223-0.147 0.144-0.23 0.338-0.23 0.54 0 0.203 0.083 0.397 0.23 0.54s0.347 0.224 0.555 0.224h8.991c0.209 0 0.408-0.081 0.556-0.224 0.147-0.143 0.23-0.337 0.23-0.54 0-0.202-0.083-0.396-0.23-0.54-0.148-0.143-0.347-0.223-0.556-0.223z" fill="#E93B3C"/>
 <path d="m24.949 12.19h-8.991c-0.205 0.021-0.394 0.12-0.525 0.275s-0.194 0.354-0.175 0.554c0.02 0.174 0.1 0.336 0.228 0.46 0.127 0.123 0.294 0.201 0.472 0.221h8.991c0.104 0.012 0.208 0.003 0.308-0.024 0.1-0.028 0.194-0.075 0.275-0.138 0.081-0.064 0.148-0.142 0.198-0.231s0.081-0.186 0.092-0.287c0.011-0.1 0.001-0.202-0.029-0.299-0.03-0.096-0.08-0.186-0.146-0.265-0.066-0.078-0.147-0.142-0.239-0.189-0.092-0.048-0.193-0.077-0.296-0.086-0.055-0.005-0.11-0.002-0.163 0.009z" fill="#E93B3C"/>
 <path d="m24.949 24.985h-8.991c-0.208 0-0.408 0.08-0.555 0.223-0.147 0.144-0.23 0.338-0.23 0.54 0 0.203 0.083 0.397 0.23 0.54s0.347 0.224 0.555 0.224h8.991c0.209 0 0.408-0.081 0.556-0.224 0.147-0.143 0.23-0.337 0.23-0.54 0-0.202-0.083-0.396-0.23-0.54-0.148-0.143-0.347-0.223-0.556-0.223z" fill="#E93B3C"/>
 <path d="m24.949 21.325h-8.991c-0.208 0-0.408 0.081-0.555 0.224s-0.23 0.337-0.23 0.54c0 0.202 0.083 0.397 0.23 0.54s0.347 0.223 0.555 0.223h8.991c0.209 0 0.408-0.08 0.556-0.223 0.147-0.143 0.23-0.338 0.23-0.54 0-0.203-0.083-0.397-0.23-0.54-0.148-0.143-0.347-0.224-0.556-0.224z" fill="#E93B3C"/>
 <path d="m24.949 34.121h-8.991c-0.208 0-0.408 0.08-0.555 0.224-0.147 0.143-0.23 0.337-0.23 0.539 0 0.203 0.083 0.397 0.23 0.54s0.347 0.224 0.555 0.224h8.991c0.209 0 0.408-0.081 0.556-0.224 0.147-0.143 0.23-0.337 0.23-0.54 0-0.202-0.083-0.396-0.23-0.539-0.148-0.144-0.347-0.224-0.556-0.224z" fill="#E93B3C"/>
 <path d="m24.949 30.47h-8.991c-0.205 0.021-0.394 0.12-0.525 0.275s-0.194 0.355-0.175 0.555c0.02 0.173 0.1 0.335 0.228 0.459 0.127 0.123 0.294 0.201 0.472 0.221h8.991c0.206 0.018 0.411-0.043 0.57-0.171 0.16-0.127 0.261-0.311 0.282-0.51 0.022-0.2-0.039-0.4-0.168-0.557-0.129-0.156-0.316-0.257-0.521-0.28l-0.163 0.008z" fill="#E93B3C"/>
</svg>
